X:1
T:Duet - Prestissimo
T:Duet - Prestissimo
T:Gaetano Brandi
C:Gaetano Brandi
%%score 1 2
L:1/8
Q:1/4=240
M:2/4
K:A
V:1 treble 
V:2 treble 
V:1
|:"^Prestissimo"!f! a2 ee | e3!p! c |"^cres:" defg | (a/g/a/b/) .a2 | a2 ee | e3 c |{c} (BABc) | %7
 A4 ::!p! (e!f!g)gg | (ae)ee | (b2 a2) |{b} (a2 g2) |!p! (e!f!g)gg | aeee |{e} (dcde) | c4 :| %16
V:2
|: c2 cc | c3 A | BcdB | c2 .c2 | c2 cc | c3 e |{e} dcde | c4 :: z eee | z ccc | (d2 c2) | %11
{d} (c2 B2) | z eee | z ccc |{c} (BABc) | A4 :| %16

